X: 2666
T: Bank Of Ireland, The
R: reel
M: 4/4
K: Dmixolydian
c2AB cBAG|EGDG EGAB|c2AB cBAG|Add^c d2AB|
cAAB cABG|EGDG EGAB|cAA2 cABG|Add^c d2 AB|
c2AB cBAG|EGDG EGAB|c2AB cBAG|Add^c dfed|
cAAB cABG|EGDG EGAB|cAA2 cABG|Add^c d2 de||
K:D
|:f3d e2fe|dfed cAA2|f2fd e2fg|afge d2cd|
eaag efge|dfed =cAGB|Addc defg|1 afge d2de:|2 afge d4||


